X: 10712
U: Q=!diminuendo(!
U: q=!diminuendo)!
M: 6/8
L: 1/8
K: D
!p!A |\
{A}!f!f2!p!e !f!d2!p!A | {A}!f!f2!p!e !f!d2!p!A | ABc def | "^>"a2g e2!p!A |\
{A}!f!g2!p!f !f!e2!p!A | {A}!f!g2!p!f !f!e2A | ABc cde | eac d2 H|]
!pp!ABc def | gaf dec | Ad/f/a Ac/e/a | dfa g/f/e/d/c/B/ |\
!pp!A2d d2f | afg agf | Q(baqg) Q(gfqe) | Q(ed)q^c Q(cB)qA |\


